X:0580
T:The Fox Hunter's Jig.
M:6/8
L:1/8
Q:3/8=120
I: :: ::
Z:Jack Campin * www.campin.me.uk * 2009
K:D
f|f2e e2d|d2e ede|fgf ede|d4   z 
f|f2f faf|faf faf|e2e ege|ege ege|
  f2f faf|eee e3 |fga agf|e4   z::
e|e2f e2A|eee ede|fga agf|eee e3 |
  fdd gee|fdd gee|fga efg|fga efg|
  f2e e2d|d2e ede|fgf ede|ddd d2:|

